icons/eye-off-fill.svg

<svg xmlns="http://www.w3.org/2000/svg" width="24" height="24" fill="none"><g clip-path="url(#a)"><g><path fill="#121212" d="M4.51966 5.93407L1.39266 2.80807L2.80766 1.39307L22.6067 21.1931L21.1917 22.6071L17.8817 19.2971C16.1229 20.4126 14.0824 21.0034 11.9997 21.0001C6.60766 21.0001 2.12166 17.1201 1.18066 12.0001C1.61069 9.67078 2.78229 7.54296 4.52066 5.93407H4.51966ZM14.7567 16.1721L13.2927 14.7081C12.7327 14.976 12.1034 15.0636 11.4916 14.9589C10.8798 14.8541 10.3155 14.5621 9.87653 14.1232C9.4376 13.6843 9.14563 13.12 9.04088 12.5081C8.93613 11.8963 9.02375 11.267 9.29166 10.7071L7.82766 9.24307C7.19138 10.2046 6.90693 11.3564 7.02249 12.5036C7.13805 13.6507 7.64652 14.7227 8.46178 15.5379C9.27705 16.3532 10.349 16.8617 11.4962 16.9772C12.6433 17.0928 13.7952 16.8084 14.7567 16.1721ZM7.97366 3.76007C9.22066 3.27007 10.5797 3.00007 11.9997 3.00007C17.3917 3.00007 21.8777 6.88007 22.8187 12.0001C22.5122 13.6658 21.8235 15.2376 20.8067 16.5921L16.9467 12.7321C17.0613 11.9597 16.9935 11.1712 16.7486 10.4297C16.5037 9.68827 16.0885 9.01448 15.5364 8.46233C14.9843 7.91019 14.3105 7.49504 13.569 7.25014C12.8276 7.00524 12.0391 6.93741 11.2667 7.05207L7.97366 3.76107V3.76007Z"/></g></g><defs><clipPath id="a"><rect width="24" height="24" fill="white"/></clipPath></defs></svg>

<svg width="24" height="24" fill="none" xmlns="http://www.w3.org/2000/svg"><g clip-path="url(#a)"><path d="M4.52 5.934 1.393 2.808l1.415-1.415 19.799 19.8-1.415 1.414-3.31-3.31A10.95 10.95 0 0 1 12 21c-5.392 0-9.878-3.88-10.82-9a10.982 10.982 0 0 1 3.34-6.066Zm10.237 10.238-1.464-1.464a3 3 0 0 1-4.001-4L7.828 9.242a5 5 0 0 0 6.929 6.93ZM7.974 3.76A10.99 10.99 0 0 1 12 3c5.392 0 9.878 3.88 10.819 9a10.95 10.95 0 0 1-2.012 4.592l-3.86-3.86a5.001 5.001 0 0 0-5.68-5.68l-3.293-3.29V3.76Z" /></g><defs><clipPath id="a"><path fill="#fff" d="M0 0h24v24H0z"/></clipPath></defs></svg>
